X: 748
T:New Brig o' Dee, The
T:Johnnie Steele
C:James Barnett
B:Flowers of Scottish Melody
Z:https://nigelgatherer.com/
R:strathspey
M:4/4
L:1/8
K:D
A, | D<D F>A d>cd<f | D<DF>D E<A,C<E |  D<D F>A d>cd>A |\
B/cd/ (3ABG F<DD>A, |
 D<D F>A d>cd<f | D<DF>A G/F/E/D/ C<E | D<DF>A d>ed>A |\
(3Bcd (3ABG F<D D ||
A | d>ef>g a>ba>d | =c>de>f g>a (3gfe | d>ef>g a>ba>f |\
(3gfe (3bag f<dd>g |
(3fdf (3afd (3gfg (3eag | (3fdf (3ece (3dcB (3AB=c |\
(3BGB (3dcB (3Afe (3dcB | (3ABA (3GFE F<D D |]

